X: 7362
T: Cliffs Of Moher, The
R: jig
M: 6/8
K: Gdorian
|:d|~g3 agf|dge fdc|AGG AGF|DGG ABc|
dgg agf|dge fdc|AGG AGF|DGF G2:|
A|ded cAA|ded cAG|F/G/AB cAG|F/G/AB c2>A|
ded cAA|ded cAG|F/G/AB cAF|AGF G2A|
ded cAA|ded cAG|F/G/AB cAG|F/G/AB c2>A|
ded cdd|Bdd cAG|F/G/AB cAF|AGF G2||

